assets/imgs/02.svg

<?xml version="1.0" encoding="UTF-8" standalone="no"?>
<svg
   width="70"
   height="25"
   viewBox="0 0 70 60"
   fill="none"
   version="1.1"
   id="svg9"
   sodipodi:docname="02.svg"
   inkscape:version="1.2.2 (b0a8486541, 2022-12-01)"
   xmlns:inkscape="http://www.inkscape.org/namespaces/inkscape"
   xmlns:sodipodi="http://sodipodi.sourceforge.net/DTD/sodipodi-0.dtd"
   xmlns="http://www.w3.org/2000/svg"
   xmlns:svg="http://www.w3.org/2000/svg">
  <defs
     id="defs13" />
  <sodipodi:namedview
     id="namedview11"
     pagecolor="#ffffff"
     bordercolor="#666666"
     borderopacity="1.0"
     inkscape:showpageshadow="2"
     inkscape:pageopacity="0.0"
     inkscape:pagecheckerboard="0"
     inkscape:deskcolor="#d1d1d1"
     showgrid="false"
     inkscape:zoom="6.6779661"
     inkscape:cx="16.172589"
     inkscape:cy="50.389594"
     inkscape:window-width="2520"
     inkscape:window-height="1481"
     inkscape:window-x="2869"
     inkscape:window-y="24"
     inkscape:window-maximized="1"
     inkscape:current-layer="svg9" />
  <mask
     id="path-1-outside-1_285_186"
     maskUnits="userSpaceOnUse"
     x="-1"
     y="33"
     width="70"
     height="44"
     fill="#000000">
    <rect
       fill="#ffffff"
       x="-1"
       y="33"
       width="70"
       height="44"
       id="rect2" />
    <path
       d="m 24.9525,55.016 c 0,-9.152 -2.432,-15.68 -6.08,-15.68 -3.648,0 -6.08,6.528 -6.08,15.68 0,9.344 2.432,15.808 6.08,15.808 3.648,0 6.08,-6.464 6.08,-15.808 z m 9.92,0 c 0,11.52 -5.696,18.368 -16,18.368 -10.304,0 -16,-6.848 -16,-18.368 0,-11.328 5.696,-18.24 16,-18.24 10.304,0 16,6.912 16,18.24 z m 16.709,-18.24 c 8.256,0 13.696,3.2 13.696,9.728 0,6.464 -7.232,11.968 -12.288,15.296 l -6.784,4.48 h 12.864 l 5.632,-2.56 V 73 h -25.28 l 0.064,-4.416 9.6,-9.344 c 4.096,-4.032 6.272,-8.384 6.272,-12.544 0,-3.648 -0.448,-7.36 -4.288,-7.36 h -0.128 c -3.2,0 -4.928,2.176 -5.952,8.128 l -5.632,-3.584 c 0.96,-2.496 4.608,-7.104 12.096,-7.104 z"
       id="path4" />
  </mask>
  <path
     d="m 27.9525,55.016 c 0,-4.7919 -0.6304,-9.1096 -1.8707,-12.3457 -1.13,-2.9481 -3.3448,-6.3343 -7.2093,-6.3343 v 6 c 0.0019,0 0.0021,1e-4 0.001,0 -5e-4,-10e-5 -0.001,-2e-4 -0.0014,-2e-4 -3e-4,-10e-5 -5e-4,-10e-5 -6e-4,-10e-5 -10e-5,-1e-4 -2e-4,-1e-4 -2e-4,-1e-4 0,0 10e-5,0 3e-4,1e-4 2e-4,0 5e-4,10e-5 9e-4,3e-4 9e-4,2e-4 0.0024,7e-4 0.0045,0.0014 0.0042,0.0015 0.0116,0.0043 0.0225,0.0094 0.0427,0.0202 0.1543,0.0838 0.3209,0.2536 0.3541,0.3608 0.8135,1.0556 1.2588,2.2173 0.8877,2.3159 1.4733,5.8382 1.4733,10.1983 z m -9.08,-18.68 c -3.8645,0 -6.0793,3.3862 -7.2093,6.3343 -1.2403,3.2361 -1.8707,7.5538 -1.8707,12.3457 h 6 c 0,-4.3601 0.5856,-7.8824 1.4733,-10.1983 0.4453,-1.1617 0.9047,-1.8565 1.2588,-2.2173 0.1666,-0.1698 0.2782,-0.2334 0.3209,-0.2536 0.0109,-0.0051 0.0183,-0.0079 0.0225,-0.0094 0.0021,-7e-4 0.0036,-0.0012 0.0045,-0.0014 4e-4,-2e-4 7e-4,-3e-4 9e-4,-3e-4 2e-4,-1e-4 3e-4,-1e-4 3e-4,-1e-4 0,0 -10e-5,0 -2e-4,1e-4 -10e-5,0 -3e-4,0 -6e-4,10e-5 -4e-4,0 -9e-4,1e-4 -0.0014,2e-4 -0.0011,1e-4 -9e-4,0 10e-4,0 z m -9.08,18.68 c 0,4.8814 0.6288,9.2322 1.8697,12.479 1.1355,2.971 3.3529,6.329 7.2103,6.329 v -6 c -0.0016,0 -0.0026,0 -0.0032,-1e-4 -3e-4,0 -5e-4,0 -6e-4,0 -10e-5,0 -2e-4,0 -2e-4,0 0,0 0,0 0,0 10e-5,0 10e-5,0 10e-5,0 10e-5,0 0,0 -3e-4,-10e-5 -4e-4,-1e-4 -0.0027,-6e-4 -0.0071,-0.0022 -0.0045,-0.0015 -0.0122,-0.0044 -0.0231,-0.0095 -0.0425,-0.02 -0.1529,-0.0824 -0.3177,-0.2497 -0.3506,-0.3559 -0.8088,-1.0456 -1.2536,-2.2094 -0.8871,-2.3212 -1.4743,-5.8744 -1.4743,-10.337 z m 9.08,18.808 c 3.8574,0 6.0748,-3.358 7.2103,-6.329 1.2409,-3.2468 1.8697,-7.5976 1.8697,-12.479 h -6 c 0,4.4626 -0.5872,8.0158 -1.4743,10.337 -0.4448,1.1638 -0.9029,1.8535 -1.2536,2.2094 -0.1648,0.1673 -0.2752,0.2297 -0.3177,0.2497 -0.0109,0.0051 -0.0186,0.008 -0.0231,0.0095 -0.0044,0.0016 -0.0067,0.0021 -0.0071,0.0022 -3e-4,10e-5 -4e-4,10e-5 -3e-4,10e-5 0,0 0,0 10e-5,0 0,0 0,0 0,0 0,0 -10e-5,0 -2e-4,0 -10e-5,0 -3e-4,0 -6e-4,0 -6e-4,1e-4 -0.0016,1e-4 -0.0032,1e-4 z m 13,-18.808 c 0,5.3044 -1.3131,9.1102 -3.4101,11.5474 -2.0397,2.3706 -5.1415,3.8206 -9.5899,3.8206 v 6 c 5.8556,0 10.7538,-1.974 14.1381,-5.9074 3.3271,-3.8668 4.8619,-9.245 4.8619,-15.4606 z m -13,15.368 c -4.4484,0 -7.5502,-1.45 -9.5899,-3.8206 C 7.18565,64.1262 5.8725,60.3204 5.8725,55.016 h -6 c 0,6.2156 1.53485,11.5938 4.8619,15.4606 3.38429,3.9334 8.2825,5.9074 14.1381,5.9074 z m -13,-15.368 c 0,-5.1973 1.30777,-8.9741 3.40764,-11.4085 2.04466,-2.3704 5.15176,-3.8315 9.59236,-3.8315 v -6 c -5.8634,0 -10.75634,1.9949 -14.13564,5.9125 -3.32413,3.8536 -4.86436,9.1968 -4.86436,15.3275 z m 13,-15.24 c 4.4406,0 7.5477,1.4611 9.5924,3.8315 2.0998,2.4344 3.4076,6.2112 3.4076,11.4085 h 6 c 0,-6.1307 -1.5402,-11.4739 -4.8644,-15.3275 C 29.6288,35.7709 24.7359,33.776 18.8725,33.776 Z m 34.117,22.024 -1.6494,-2.5059 -0.0038,0.0025 z m -6.784,4.48 -1.6532,-2.5034 -8.3337,5.5034 h 9.9869 z m 12.864,0 v 3 h 0.6498 l 0.5916,-0.2689 z m 5.632,-2.56 h 3 v -4.659 l -4.2414,1.9279 z m 0,9.28 v 3 h 3 V 73 Z M 39.4215,73 36.4218,72.9565 36.3777,76 h 3.0438 z m 0.064,-4.416 -2.0925,-2.1498 -0.8892,0.8655 -0.018,1.2408 z m 9.6,-9.344 2.0925,2.1498 0.006,-0.0059 0.0061,-0.0059 z m -4.096,-11.776 -1.6106,2.531 3.8029,2.42 0.7643,-4.4423 z m -5.632,-3.584 -2.8,-1.0769 -0.881,2.2904 2.0704,1.3175 z m 12.224,-4.104 c 3.8098,0 6.5588,0.7495 8.2646,1.9019 1.5469,1.0451 2.4314,2.5351 2.4314,4.8261 h 6 c 0,-4.237 -1.8355,-7.611 -5.0726,-9.7979 C 60.1267,34.6265 56.0277,33.776 51.5815,33.776 Z m 10.696,6.728 c 0,2.1045 -1.1982,4.387 -3.4356,6.7711 -2.1939,2.3378 -5.0286,4.3911 -7.5018,6.019 l 3.2988,5.0118 c 2.5828,-1.7001 5.8921,-4.0628 8.5782,-6.925 2.6426,-2.8159 5.0604,-6.5174 5.0604,-10.8769 z m -10.9412,12.7926 -6.784,4.48 3.3064,5.0068 6.784,-4.48 z M 46.2055,69.28 h 12.864 v -6 h -12.864 z m 14.1054,-0.2689 5.632,-2.56 -2.4828,-5.4622 -5.632,2.56 z M 61.7015,63.72 V 73 h 6 v -9.28 z m 3,6.28 h -25.28 v 6 h 25.28 z m -22.2803,3.0435 0.064,-4.416 -5.9994,-0.087 -0.064,4.416 z m -0.8432,-2.3097 9.6,-9.344 -4.185,-4.2996 -9.6,9.344 z m 9.6121,-9.3558 c 4.4453,-4.3759 7.1674,-9.451 7.1674,-14.682 h -6 c 0,3.089 -1.6299,6.7179 -5.3766,10.406 z m 7.1674,-14.682 c 0,-1.8157 -0.087,-4.2202 -0.9457,-6.2278 -0.4577,-1.07 -1.1851,-2.1549 -2.3387,-2.9577 -1.1687,-0.8132 -2.5416,-1.1745 -4.0036,-1.1745 v 6 c 0.2383,0 0.384,0.0287 0.4617,0.0509 0.0734,0.021 0.1039,0.041 0.1147,0.0486 0.0104,0.0072 0.115,0.0783 0.2493,0.3923 0.3253,0.7604 0.4623,2.0359 0.4623,3.8682 z m -7.288,-10.36 h -0.128 v 6 h 0.128 z m -0.128,0 c -2.4403,0 -4.6101,0.9096 -6.1974,3.0392 -1.3991,1.8772 -2.1804,4.4949 -2.7112,7.5801 l 5.9132,1.0174 c 0.4932,-2.8668 1.0879,-4.3131 1.6088,-5.0119 0.3327,-0.4464 0.6269,-0.6248 1.3866,-0.6248 z m -4.3414,8.597 -5.632,-3.584 -3.2212,5.062 5.632,3.584 z m -4.4426,0.0239 c 0.582,-1.5131 3.2275,-5.1809 9.296,-5.1809 v -6 c -8.9075,0 -13.558,5.5482 -14.896,9.0271 z m 9.296,-5.1809 h 0.128 v -6 h -0.128 z"
     fill="#ffffff"
     mask="url(#path-1-outside-1_285_186)"
     id="path7"
     transform="translate(1.3477157,-23.510152)" />
</svg>

<svg width="67" height="30" viewBox="0 0 67 118" fill="none" xmlns="http://www.w3.org/2000/svg">
<mask id="path-1-outside-1_285_186" maskUnits="userSpaceOnUse" x="-1" y="33" width="70" height="44" fill="black">
<rect fill="white" x="-1" y="33" width="70" height="44"/>
<path d="M24.9525 55.016C24.9525 45.864 22.5205 39.336 18.8725 39.336C15.2245 39.336 12.7925 45.864 12.7925 55.016C12.7925 64.36 15.2245 70.824 18.8725 70.824C22.5205 70.824 24.9525 64.36 24.9525 55.016ZM34.8725 55.016C34.8725 66.536 29.1765 73.384 18.8725 73.384C8.5685 73.384 2.8725 66.536 2.8725 55.016C2.8725 43.688 8.5685 36.776 18.8725 36.776C29.1765 36.776 34.8725 43.688 34.8725 55.016ZM51.5815 36.776C59.8375 36.776 65.2775 39.976 65.2775 46.504C65.2775 52.968 58.0455 58.472 52.9895 61.8L46.2055 66.28H59.0695L64.7015 63.72V73H39.4215L39.4855 68.584L49.0855 59.24C53.1815 55.208 55.3575 50.856 55.3575 46.696C55.3575 43.048 54.9095 39.336 51.0695 39.336H50.9415C47.7415 39.336 46.0135 41.512 44.9895 47.464L39.3575 43.88C40.3175 41.384 43.9655 36.776 51.4535 36.776H51.5815Z"/>
</mask>
<path d="M27.9525 55.016C27.9525 50.2241 27.3221 45.9064 26.0818 42.6703C24.9518 39.7222 22.737 36.336 18.8725 36.336V42.336C18.8744 42.336 18.8746 42.3361 18.8735 42.336C18.873 42.3359 18.8725 42.3358 18.8721 42.3358C18.8718 42.3357 18.8716 42.3357 18.8715 42.3357C18.8714 42.3356 18.8713 42.3356 18.8713 42.3356C18.8713 42.3356 18.8714 42.3356 18.8716 42.3357C18.8718 42.3357 18.8721 42.3358 18.8725 42.336C18.8734 42.3362 18.8749 42.3367 18.877 42.3374C18.8812 42.3389 18.8886 42.3417 18.8995 42.3468C18.9422 42.367 19.0538 42.4306 19.2204 42.6004C19.5745 42.9612 20.0339 43.656 20.4792 44.8177C21.3669 47.1336 21.9525 50.6559 21.9525 55.016H27.9525ZM18.8725 36.336C15.008 36.336 12.7932 39.7222 11.6632 42.6703C10.4229 45.9064 9.7925 50.2241 9.7925 55.016H15.7925C15.7925 50.6559 16.3781 47.1336 17.2658 44.8177C17.7111 43.656 18.1705 42.9612 18.5246 42.6004C18.6912 42.4306 18.8028 42.367 18.8455 42.3468C18.8564 42.3417 18.8638 42.3389 18.868 42.3374C18.8701 42.3367 18.8716 42.3362 18.8725 42.336C18.8729 42.3358 18.8732 42.3357 18.8734 42.3357C18.8736 42.3356 18.8737 42.3356 18.8737 42.3356C18.8737 42.3356 18.8736 42.3356 18.8735 42.3357C18.8734 42.3357 18.8732 42.3357 18.8729 42.3358C18.8725 42.3358 18.872 42.3359 18.8715 42.336C18.8704 42.3361 18.8706 42.336 18.8725 42.336V36.336ZM9.7925 55.016C9.7925 59.8974 10.4213 64.2482 11.6622 67.495C12.7977 70.466 15.0151 73.824 18.8725 73.824V67.824C18.8709 67.824 18.8699 67.824 18.8693 67.8239C18.869 67.8239 18.8688 67.8239 18.8687 67.8239C18.8686 67.8239 18.8685 67.8239 18.8685 67.8239C18.8685 67.8239 18.8685 67.8239 18.8685 67.8239C18.8686 67.8239 18.8686 67.8239 18.8686 67.8239C18.8687 67.8239 18.8686 67.8239 18.8683 67.8238C18.8679 67.8237 18.8656 67.8232 18.8612 67.8216C18.8567 67.8201 18.849 67.8172 18.8381 67.8121C18.7956 67.7921 18.6852 67.7297 18.5204 67.5624C18.1698 67.2065 17.7116 66.5168 17.2668 65.353C16.3797 63.0318 15.7925 59.4786 15.7925 55.016H9.7925ZM18.8725 73.824C22.7299 73.824 24.9473 70.466 26.0828 67.495C27.3237 64.2482 27.9525 59.8974 27.9525 55.016H21.9525C21.9525 59.4786 21.3653 63.0318 20.4782 65.353C20.0334 66.5168 19.5753 67.2065 19.2246 67.5624C19.0598 67.7297 18.9494 67.7921 18.9069 67.8121C18.896 67.8172 18.8883 67.8201 18.8838 67.8216C18.8794 67.8232 18.8771 67.8237 18.8767 67.8238C18.8764 67.8239 18.8763 67.8239 18.8764 67.8239C18.8764 67.8239 18.8764 67.8239 18.8765 67.8239C18.8765 67.8239 18.8765 67.8239 18.8765 67.8239C18.8765 67.8239 18.8764 67.8239 18.8763 67.8239C18.8762 67.8239 18.876 67.8239 18.8757 67.8239C18.8751 67.824 18.8741 67.824 18.8725 67.824V73.824ZM31.8725 55.016C31.8725 60.3204 30.5594 64.1262 28.4624 66.5634C26.4227 68.934 23.3209 70.384 18.8725 70.384V76.384C24.7281 76.384 29.6263 74.41 33.0106 70.4766C36.3377 66.6098 37.8725 61.2316 37.8725 55.016H31.8725ZM18.8725 70.384C14.4241 70.384 11.3223 68.934 9.2826 66.5634C7.18565 64.1262 5.8725 60.3204 5.8725 55.016H-0.1275C-0.1275 61.2316 1.40735 66.6098 4.7344 70.4766C8.11869 74.41 13.0169 76.384 18.8725 76.384V70.384ZM5.8725 55.016C5.8725 49.8187 7.18027 46.0419 9.28014 43.6075C11.3248 41.2371 14.4319 39.776 18.8725 39.776V33.776C13.0091 33.776 8.11616 35.7709 4.73686 39.6885C1.41273 43.5421 -0.1275 48.8853 -0.1275 55.016H5.8725ZM18.8725 39.776C23.3131 39.776 26.4202 41.2371 28.4649 43.6075C30.5647 46.0419 31.8725 49.8187 31.8725 55.016H37.8725C37.8725 48.8853 36.3323 43.5421 33.0081 39.6885C29.6288 35.7709 24.7359 33.776 18.8725 33.776V39.776ZM52.9895 61.8L51.3401 59.2941L51.3363 59.2966L52.9895 61.8ZM46.2055 66.28L44.5523 63.7766L36.2186 69.28H46.2055V66.28ZM59.0695 66.28V69.28H59.7193L60.3109 69.0111L59.0695 66.28ZM64.7015 63.72H67.7015V59.061L63.4601 60.9889L64.7015 63.72ZM64.7015 73V76H67.7015V73H64.7015ZM39.4215 73L36.4218 72.9565L36.3777 76H39.4215V73ZM39.4855 68.584L37.393 66.4342L36.5038 67.2997L36.4858 68.5405L39.4855 68.584ZM49.0855 59.24L51.178 61.3898L51.184 61.3839L51.1901 61.378L49.0855 59.24ZM44.9895 47.464L43.3789 49.995L47.1818 52.415L47.9461 47.9727L44.9895 47.464ZM39.3575 43.88L36.5575 42.8031L35.6765 45.0935L37.7469 46.411L39.3575 43.88ZM51.5815 39.776C55.3913 39.776 58.1403 40.5255 59.8461 41.6779C61.393 42.723 62.2775 44.213 62.2775 46.504H68.2775C68.2775 42.267 66.442 38.893 63.2049 36.7061C60.1267 34.6265 56.0277 33.776 51.5815 33.776V39.776ZM62.2775 46.504C62.2775 48.6085 61.0793 50.891 58.8419 53.2751C56.648 55.6129 53.8133 57.6662 51.3401 59.2941L54.6389 64.3059C57.2217 62.6058 60.531 60.2431 63.2171 57.3809C65.8597 54.565 68.2775 50.8635 68.2775 46.504H62.2775ZM51.3363 59.2966L44.5523 63.7766L47.8587 68.7834L54.6427 64.3034L51.3363 59.2966ZM46.2055 69.28H59.0695V63.28H46.2055V69.28ZM60.3109 69.0111L65.9429 66.4511L63.4601 60.9889L57.8281 63.5489L60.3109 69.0111ZM61.7015 63.72V73H67.7015V63.72H61.7015ZM64.7015 70H39.4215V76H64.7015V70ZM42.4212 73.0435L42.4852 68.6275L36.4858 68.5405L36.4218 72.9565L42.4212 73.0435ZM41.578 70.7338L51.178 61.3898L46.993 57.0902L37.393 66.4342L41.578 70.7338ZM51.1901 61.378C55.6354 57.0021 58.3575 51.927 58.3575 46.696H52.3575C52.3575 49.785 50.7276 53.4139 46.9809 57.102L51.1901 61.378ZM58.3575 46.696C58.3575 44.8803 58.2705 42.4758 57.4118 40.4682C56.9541 39.3982 56.2267 38.3133 55.0731 37.5105C53.9044 36.6973 52.5315 36.336 51.0695 36.336V42.336C51.3078 42.336 51.4535 42.3647 51.5312 42.3869C51.6046 42.4079 51.6351 42.4279 51.6459 42.4355C51.6563 42.4427 51.7609 42.5138 51.8952 42.8278C52.2205 43.5882 52.3575 44.8637 52.3575 46.696H58.3575ZM51.0695 36.336H50.9415V42.336H51.0695V36.336ZM50.9415 36.336C48.5012 36.336 46.3314 37.2456 44.7441 39.3752C43.345 41.2524 42.5637 43.8701 42.0329 46.9553L47.9461 47.9727C48.4393 45.1059 49.034 43.6596 49.5549 42.9608C49.8876 42.5144 50.1818 42.336 50.9415 42.336V36.336ZM46.6001 44.933L40.9681 41.349L37.7469 46.411L43.3789 49.995L46.6001 44.933ZM42.1575 44.9569C42.7395 43.4438 45.385 39.776 51.4535 39.776V33.776C42.546 33.776 37.8955 39.3242 36.5575 42.8031L42.1575 44.9569ZM51.4535 39.776H51.5815V33.776H51.4535V39.776Z" fill="white" mask="url(#path-1-outside-1_285_186)"/>
</svg>
